!!!COA: Josquin des Prez
!!!CDT: ~1450-1521/08/27
!!!COM: Gregoire
!!!OTL@@LAT: Ave verum
!!!OTL2@@LAT: O salutaris
!!!OTL3@@LAT: Ecce panis
!!!OTL34@LAT: Bone
!!!AGN: Motet
!!!SCT: NJE 21.4
!!!SCA: New Josquin Edition 21.4
!!!voices: 4
**kern	**kern	**kern	**kern
*staff4	*staff3	*staff2	*staff1
*Ivox	*Ivox	*Ivox	*Ivox
*I"Bassus	*I"Tenor	*I"Altus	*I"Superius
*I'B	*I'T	*I'A	*I'S
*clefF4	*clefGv2	*clefGv2	*clefG2
*k[b-]	*k[b-]	*k[b-]	*k[b-]
*M2/1	*M2/1	*M2/1	*M2/1
*met(C|)	*met(C|)	*met(C|)	*met(C|)
=1-	=1-	=1-	=1-
0r	0F	0r	1.f
.	.	.	2g/
=2	=2	=2	=2
0r	0F	0r	1a
.	.	.	1f
=3	=3	=3	=3
0C	[0G	0r	2.e/
.	.	.	4f/
.	.	.	[1g
=4	=4	=4	=4
0C	0G]	0c	2g/]
.	.	.	1f
.	.	.	2e/
=5	=5	=5	=5
0D	0F	1A	1.f
.	.	[1B-	.
.	.	.	[2b-\
=6	=6	=6	=6
1.D	0r	0B-]	2b-\]
.	.	.	1a
2E\	.	.	2g/
=7	=7	=7	=7
1.F	1r	1A	0a
.	1A	[1F	.
2E\	.	.	.
=8	=8	=8	=8
1D	1B-	1F]	0r
[1C	[1c	1G	.
=9	=9	=9	=9
0C]	0c]	0E	1.g
.	.	.	2a/
=10	=10	=10	=10
0BB-	[0d	[0F	0b-
=11	=11	=11	=11
1D	0d]	0F]	[0a
2.D\	.	.	.
4E\	.	.	.
=12	=12	=12	=12
1F	1c	2r	1a]
.	.	1F	.
1C	[1c	.	1g
.	.	2E/	.
=13	=13	=13	=13
0D	2c\]	0F	1.f
.	4Bni\	.	.
.	4A/	.	.
.	1Bni	.	.
.	.	.	4e/
.	.	.	4d/
=14	=14	=14	=14
0C	[0c	0G	2e/
.	.	.	1f
.	.	.	2e/
=15	=15	=15	=15
0r	0c_	[0F	1f
.	.	.	1r
=16	=16	=16	=16
0r	0c_	0F]	2.f/
.	.	.	4g/
.	.	.	2a/
.	.	.	2f/
=17	=17	=17	=17
1C	0c]	0r	1.g
2E\	.	.	.
2F\	.	.	2f/
=18	=18	=18	=18
0G	1r	0r	2.b-\
.	.	.	4a/
.	1B-	.	1g
=19	=19	=19	=19
0F	0c	2r	1a
.	.	2F/	.
.	.	1A	2r
.	.	.	2a/
=20	=20	=20	=20
0E	0r	1c	1g
.	.	1c	1g
=21	=21	=21	=21
0D	0d	2r	2.f/
.	.	2d\	.
.	.	.	4e/
.	.	1B-	1f
=22	=22	=22	=22
0C	0e-	1c	1g
.	.	1c	1g
=23	=23	=23	=23
1.D	0d	0r	[0f
2E\	.	.	.
=24	=24	=24	=24
0F	1.c	0r	0f_
.	2d\	.	.
=25	=25	=25	=25
0r	1.B-	0d	0f]
.	2A/	.	.
=26	=26	=26	=26
0r	1G	0e	1r
.	[1c	.	2r
.	.	.	2a/
=27	=27	=27	=27
0r	2c\]	[0f	1cc
.	2A/	.	.
.	1B-	.	1dd
=28	=28	=28	=28
0F	0c	0f_	2.cc\
.	.	.	4b-\
.	.	.	[1a
=29	=29	=29	=29
0D	2r	0f]	2a/]
.	2F/	.	4g/
.	.	.	4f/
.	1A	.	1f
=30	=30	=30	=30
1E	1c	0e	1.g
1C	1c	.	.
.	.	.	2a/
=31	=31	=31	=31
0D	2.B-\	1d	2r
.	.	.	2b-\
.	4c\	.	.
.	1d	1B-	4b-\
.	.	.	4a/
.	.	.	4g/
.	.	.	4f/
=32	=32	=32	=32
[0C	1.e	1c	2g/
.	.	.	2a/
.	.	1c	2.g/
.	2c\	.	.
.	.	.	4e/
=33	=33	=33	=33
0C]	1c	2r	0e
.	.	2c\	.
.	2r	1A	.
.	2c\	.	.
=34	=34	=34	=34
[0BB-	[0d	2.B-\	2r
.	.	.	2f/
.	.	4A/	.
.	.	2G/	[1b-
.	.	2F/	.
=35	=35	=35	=35
0BB-_	0d]	2.F/	2b-\]
.	.	.	4a/
.	.	4E/	4g/
.	.	2F/	4f/
.	.	.	4e/
.	.	2G/	4d/
.	.	.	4c/
=36	=36	=36	=36
0BB-]	0B-	0F	2.d/
.	.	.	4e/
.	.	.	2f/
.	.	.	2d/
=37	=37	=37	=37
0C	0G	2r	2.e/
.	.	2c\	.
.	.	.	4f/
.	.	2c\	2g/
.	.	2c\	2e/
=38	=38	=38	=38
0D	2r	0F	2.f/
.	2B-\	.	.
.	.	.	4g/
.	1A	.	2a/
.	.	.	2f/
=39	=39	=39	=39
2r	0F	2c\	2a/
2BB-/	.	2d\	2.b-\
1D	.	1B-	.
.	.	.	4a/
.	.	.	4g/
.	.	.	4f/
=40	=40	=40	=40
0C	0G	0c	2e/
.	.	.	1f
.	.	.	2e/
=41	=41	=41	=41
0D	1F	1A	0f
.	2r	1d	.
.	2B-\	.	.
=42	=42	=42	=42
0F	[0A	[0c	2r
.	.	.	2a/
.	.	.	2.cc\
.	.	.	4dd\
=43	=43	=43	=43
[0F	0A_	0c]	2cc\
.	.	.	2b-\
.	.	.	2.a/
.	.	.	4g/
=44	=44	=44	=44
0F]	0A]	2r	0f
.	.	1c	.
.	.	2d\	.
=45	=45	=45	=45
0E	0G	0e	0g
=46	=46	=46	=46
0D	0F	1.f	0a
.	.	4e\	.
.	.	4d\	.
=47	=47	=47	=47
0C	2r	2e\	0r
.	2E-/	1g	.
.	1G	.	.
.	.	4f\	.
.	.	4e\	.
=48	=48	=48	=48
[0BB-	1B-	[0d	0b-
.	2F/	.	.
.	[2G/	.	.
=49	=49	=49	=49
0BB-]	2G/]	0d]	1.b-
.	2F/	.	.
.	1F	.	.
.	.	.	2a/
=50	=50	=50	=50
0C	2.E/	[0c;l	2g/
.	.	.	2f/
.	4F/	.	.
.	2G/	.	2.e/
.	2A/	.	.
.	.	.	4f/
=51	=51	=51	=51
0C	0G	0c_	2g/
.	.	.	1f
.	.	.	2e/
=52	=52	=52	=52
0FF;l	0Fl	0c]	0fl
==	==	==	==
*-	*-	*-	*-
!!!RDF**kern: l=long note in original notation
!!!RDF**kern: i=editorial accidental
!!!ENC:	Will Watson 13/10/2011
!!!END:	2011/10/13/
!!!EED:	Jesse Rodin
!!!EEV:	2011/12/16/
!!attribution-level@Jos: 4 (questionable)
!!!ONB:	Translated from MusicXML and edited on 2011/12/16/ by Craig Sapp
!!muse2ps: C^@{COA}?\n@{SCT}^i2I150v90,90,90,150Q16
